packages/office-viewer/src/excel/io/excel/preset/icons/exclamationSymbolYellow.svg

<svg width="16" height="16" viewBox="0 0 16 16" fill="none" xmlns="http://www.w3.org/2000/svg">
	<path d="M7.40728 8.91546L7.0894 4.48613C7.0298 3.62307 7 3.00352 7 2.62748C7 2.11581 7.14238 1.71819 7.42715 1.43461C7.71854 1.14487 8.09934 1 8.56954 1C9.13907 1 9.51987 1.18494 9.71192 1.55482C9.90397 1.91854 10 2.44562 10 3.13606C10 3.54293 9.97682 3.95597 9.93046 4.37516L9.50331 8.93395C9.45695 9.47644 9.35762 9.89256 9.2053 10.1823C9.05298 10.472 8.80132 10.6169 8.45033 10.6169C8.09272 10.6169 7.84437 10.4782 7.7053 10.2008C7.56623 9.91722 7.46689 9.48877 7.40728 8.91546ZM8.50993 15C8.10596 15 7.75166 14.8798 7.44702 14.6394C7.14901 14.3928 7 14.0506 7 13.6129C7 13.2307 7.14238 12.9071 7.42715 12.642C7.71854 12.3708 8.07285 12.2351 8.49007 12.2351C8.90728 12.2351 9.26159 12.3708 9.55298 12.642C9.85099 12.9071 10 13.2307 10 13.6129C10 14.0445 9.85099 14.3835 9.55298 14.6301C9.25497 14.8767 8.90728 15 8.50993 15Z" fill="#F8DB8F" />
	<path d="M9.26817 1.78523L9.26816 1.78523L9.26977 1.78829C9.40628 2.04681 9.5 2.47851 9.5 3.13606C9.5 3.52392 9.47791 3.9186 9.43349 4.32021L9.43342 4.3202L9.43264 4.32852L9.00549 8.8873L9.00548 8.8873L9.00513 8.89138C8.96117 9.40573 8.87009 9.74541 8.76273 9.94964C8.72487 10.0217 8.68649 10.0556 8.65287 10.0749C8.61731 10.0954 8.55652 10.1169 8.45033 10.1169C8.33529 10.1169 8.27251 10.0947 8.23967 10.0764C8.21124 10.0605 8.18178 10.0349 8.15316 9.97847C8.05411 9.77531 7.96295 9.42 7.90542 8.87158L7.58822 4.45168C7.5882 4.45145 7.58818 4.45123 7.58817 4.451C7.52864 3.58895 7.5 2.98466 7.5 2.62748C7.5 2.21072 7.61334 1.9549 7.77984 1.78903C7.96382 1.60616 8.21087 1.5 8.56954 1.5C9.03116 1.5 9.1932 1.64084 9.26817 1.78523ZM9.2123 13.008L9.21222 13.0081L9.22067 13.0156C9.41729 13.1905 9.5 13.3804 9.5 13.6129C9.5 13.9149 9.40325 14.105 9.23423 14.2449C9.0285 14.4151 8.79437 14.5 8.50993 14.5C8.21559 14.5 7.97297 14.4159 7.76149 14.2506C7.59684 14.1125 7.5 13.921 7.5 13.6129C7.5 13.3724 7.58261 13.1804 7.76783 13.008C7.96191 12.8273 8.19258 12.7351 8.49007 12.7351C8.78755 12.7351 9.01823 12.8273 9.2123 13.008Z" stroke="black" stroke-opacity="0.2" />
</svg>

<svg xmlns="http://www.w3.org/2000/svg" width="16" height="16" fill="none"><path fill="#F8DB8F" d="M7.407 8.915 7.09 4.486Q7 3.192 7 2.627q0-.767.427-1.192Q7.864 1 8.57 1q.854 0 1.142.555Q10 2.1 10 3.136q0 .61-.07 1.24l-.427 4.558q-.069.814-.298 1.248t-.755.435q-.536 0-.745-.416-.208-.425-.298-1.286M8.51 15q-.606 0-1.063-.36Q7 14.268 7 13.612q0-.573.427-.971a1.5 1.5 0 0 1 1.063-.407q.626 0 1.063.407.447.398.447.97 0 .648-.447 1.018T8.51 15"/><path stroke="#000" stroke-opacity=".2" d="m9.268 1.785.002.003c.136.259.23.69.23 1.348q0 .582-.067 1.184v.009l-.428 4.558v.004c-.044.515-.135.854-.242 1.059a.3.3 0 0 1-.11.125.4.4 0 0 1-.203.042.43.43 0 0 1-.21-.04.2.2 0 0 1-.087-.099c-.099-.203-.19-.558-.248-1.106l-.317-4.42V4.45A30 30 0 0 1 7.5 2.627c0-.416.113-.672.28-.838.184-.183.43-.289.79-.289.461 0 .623.14.698.285Zm-.056 11.223.009.008c.196.175.279.364.279.597 0 .302-.097.492-.266.632-.206.17-.44.255-.724.255-.294 0-.537-.084-.749-.25-.164-.137-.261-.329-.261-.637 0-.24.083-.433.268-.605.194-.18.425-.273.722-.273.298 0 .528.092.722.273Z"/></svg>
